;Generated with Cura_SteamEngine DEV
M140 S0
M109 TO S200
M190 S0
G21        ;metric values
G90        ;absolute positioning
M82        ;set extruder to absolute mode
M107       ;start with the fan off
G28 ;move to min endstops
G1 Z15.0 F9000 ;move the platform down 15mm
G92 E0                  ;zero the extruded length
G1 F200 E3              ;extrude 3mm of feed stock
G92 E0                  ;zero the extruded length again
G1 F9000
;Put printing message on LCD screen
M117 Printing...
;Layer count: 25
;LAYER:0
M107
G0 F6000 X62.200 Y62.200 Z0.300
;TYPE:SKIRT
G1 F900 X137.800 Y62.200 E1.92514
G1 X137.800 Y137.800 E3.85028
G1 X62.200 Y137.800 E5.77541
G1 X62.200 Y62.200 E7.70055
G1 F2400 E3.20055
G0 F6000 X74.600 Y74.600
;TYPE:WALL-INNER
G1 F2400 E7.70055
G1 F900 X125.400 Y74.600 E8.99416
G1 X125.400 Y125.400 E10.28778
G1 X74.600 Y125.400 E11.58139
G1 X74.600 Y74.600 E12.87500
G0 F6000 X88.625 Y97.080
G1 F900 X88.063 Y97.586 E12.89426
G1 X87.652 Y98.156 E12.91215
G1 X87.455 Y98.541 E12.92316
G1 X87.322 Y98.892 E12.93272
G1 X87.225 Y99.250 E12.94217
G1 X87.166 Y99.628 E12.95191
G1 X87.148 Y99.996 E12.96129
G1 X87.167 Y100.417 E12.97202
G1 X87.314 Y101.115 E12.99019
G1 X87.623 Y101.807 E13.00949
G1 X88.066 Y102.416 E13.02866
G1 X88.584 Y102.883 E13.04642
G1 X88.994 Y103.150 E13.05888
G1 X89.635 Y103.435 E13.07675
G1 X90.314 Y103.578 E13.09442
G1 X90.801 Y103.606 E13.10684
G1 X91.501 Y103.532 E13.12476
G1 X92.220 Y103.299 E13.14401
G1 X92.826 Y102.947 E13.16185
G1 X93.203 Y102.642 E13.17420
G1 X93.630 Y102.168 E13.19045
G1 X93.899 Y101.758 E13.20294
G1 X94.185 Y101.112 E13.22093
G1 X94.329 Y100.434 E13.23858
G1 X94.356 Y99.939 E13.25120
G1 X94.286 Y99.292 E13.26777
G1 X94.159 Y98.824 E13.28012
G1 X93.895 Y98.235 E13.29656
G1 X93.631 Y97.831 E13.30885
G1 X93.164 Y97.314 E13.32659
G1 X92.550 Y96.870 E13.34588
G1 X91.918 Y96.588 E13.36351
G1 X91.496 Y96.474 E13.37464
G1 X91.119 Y96.416 E13.38435
G1 X90.686 Y96.394 E13.39539
G1 X90.045 Y96.462 E13.41181
G1 X89.625 Y96.576 E13.42289
G1 X89.223 Y96.732 E13.43387
G1 X88.625 Y97.080 E13.45149
G0 F6000 X105.666 Y99.628
G1 F900 X105.648 Y99.996 E13.46087
G1 X105.667 Y100.417 E13.47160
G1 X105.814 Y101.115 E13.48977
G1 X106.123 Y101.807 E13.50906
G1 X106.566 Y102.416 E13.52824
G1 X107.084 Y102.883 E13.54600
G1 X107.494 Y103.150 E13.55846
G1 X108.135 Y103.435 E13.57632
G1 X108.814 Y103.578 E13.59399
G1 X109.301 Y103.606 E13.60642
G1 X110.001 Y103.532 E13.62434
G1 X110.720 Y103.299 E13.64359
G1 X111.326 Y102.947 E13.66143
G1 X111.703 Y102.642 E13.67378
G1 X112.130 Y102.168 E13.69003
G1 X112.399 Y101.758 E13.70251
G1 X112.685 Y101.112 E13.72050
G1 X112.829 Y100.434 E13.73815
G1 X112.856 Y99.939 E13.75078
G1 X112.786 Y99.292 E13.76735
G1 X112.659 Y98.824 E13.77970
G1 X112.395 Y98.235 E13.79614
G1 X112.131 Y97.831 E13.80843
G1 X111.664 Y97.314 E13.82617
G1 X111.050 Y96.870 E13.84546
G1 X110.418 Y96.588 E13.86308
G1 X109.996 Y96.474 E13.87422
G1 X109.619 Y96.416 E13.88393
G1 X109.186 Y96.394 E13.89497
G1 X108.545 Y96.462 E13.91138
G1 X108.125 Y96.576 E13.92247
G1 X107.723 Y96.732 E13.93345
G1 X107.125 Y97.080 E13.95107
G1 X106.563 Y97.586 E13.97032
G1 X106.152 Y98.156 E13.98822
G1 X105.955 Y98.541 E13.99923
G1 X105.822 Y98.892 E14.00879
G1 X105.725 Y99.250 E14.01823
G1 X105.666 Y99.628 E14.02798
G0 F6000 X106.264 Y99.690
G1 F900 X106.248 Y99.997 E14.03580
G1 X106.264 Y100.341 E14.04457
G1 X106.388 Y100.928 E14.05985
G1 X106.645 Y101.505 E14.07594
G1 X107.014 Y102.012 E14.09190
G1 X107.451 Y102.406 E14.10689
G1 X107.782 Y102.621 E14.11694
G1 X108.321 Y102.861 E14.13196
G1 X108.894 Y102.982 E14.14688
G1 X109.286 Y103.005 E14.15688
G1 X109.875 Y102.942 E14.17196
G1 X110.474 Y102.748 E14.18799
G1 X110.985 Y102.452 E14.20303
G1 X111.289 Y102.205 E14.21301
G1 X111.654 Y101.800 E14.22689
G1 X111.871 Y101.470 E14.23695
G1 X112.111 Y100.927 E14.25206
G1 X112.232 Y100.354 E14.26698
G1 X112.255 Y99.955 E14.27715
G1 X112.194 Y99.404 E14.29127
G1 X112.092 Y99.026 E14.30124
G1 X111.867 Y98.524 E14.31525
G1 X111.654 Y98.199 E14.32515
G1 X111.261 Y97.763 E14.34009
G1 X110.749 Y97.392 E14.35619
G1 X110.216 Y97.155 E14.37105
G1 X109.872 Y97.062 E14.38012
G1 X109.558 Y97.014 E14.38821
G1 X109.203 Y96.996 E14.39726
G1 X108.656 Y97.054 E14.41127
G1 X108.313 Y97.147 E14.42032
G1 X107.983 Y97.275 E14.42933
G1 X107.480 Y97.567 E14.44414
G1 X107.012 Y97.989 E14.46019
G1 X106.665 Y98.470 E14.47529
G1 X106.504 Y98.785 E14.48430
G1 X106.313 Y99.375 E14.50009
G1 X106.264 Y99.690 E14.50821
G0 F6000 X93.755 Y99.955
G1 F900 X93.694 Y99.404 E14.52233
G1 X93.592 Y99.026 E14.53230
G1 X93.367 Y98.524 E14.54631
G1 X93.154 Y98.199 E14.55620
G1 X92.761 Y97.763 E14.57115
G1 X92.249 Y97.392 E14.58725
G1 X91.716 Y97.155 E14.60210
G1 X91.372 Y97.062 E14.61118
G1 X91.058 Y97.014 E14.61927
G1 X90.703 Y96.996 E14.62832
G1 X90.156 Y97.054 E14.64233
G1 X89.813 Y97.147 E14.65138
G1 X89.483 Y97.275 E14.66039
G1 X88.980 Y97.567 E14.67520
G1 X88.512 Y97.989 E14.69125
G1 X88.165 Y98.470 E14.70635
G1 X88.004 Y98.785 E14.71536
G1 X87.813 Y99.375 E14.73115
G1 X87.764 Y99.690 E14.73927
G1 X87.748 Y99.997 E14.74710
G1 X87.764 Y100.341 E14.75587
G1 X87.888 Y100.928 E14.77114
G1 X88.145 Y101.505 E14.78723
G1 X88.514 Y102.012 E14.80320
G1 X88.951 Y102.406 E14.81818
G1 X89.282 Y102.621 E14.82823
G1 X89.821 Y102.861 E14.84326
G1 X90.394 Y102.982 E14.85817
G1 X90.786 Y103.005 E14.86817
G1 X91.375 Y102.942 E14.88325
G1 X91.974 Y102.748 E14.89929
G1 X92.485 Y102.452 E14.91432
G1 X92.789 Y102.205 E14.92430
G1 X93.154 Y101.800 E14.93818
G1 X93.371 Y101.470 E14.94824
G1 X93.611 Y100.927 E14.96336
G1 X93.732 Y100.354 E14.97827
G1 X93.755 Y99.955 E14.98845
G0 F6000 X74.000 Y74.000
G1 F900 X126.000 Y74.000 E16.31262
G1 X126.000 Y126.000 E17.63679
G1 X74.000 Y126.000 E18.96096
G1 X74.000 Y74.000 E20.28512
G0 F6000 X73.400 Y73.400
G1 F900 X126.600 Y73.400 E21.63985
G1 X126.600 Y126.600 E22.99458
G1 X73.400 Y126.600 E24.34931
G1 X73.400 Y73.400 E25.70403
G0 F6000 X89.335 Y98.055
G1 F900 X88.961 Y98.392 E25.71685
G1 X88.679 Y98.783 E25.72913
G1 X88.554 Y99.028 E25.73613
G1 X88.465 Y99.263 E25.74253
G1 X88.400 Y99.500 E25.74879
G1 X88.362 Y99.751 E25.75525
G1 X88.349 Y99.998 E25.76155
G1 X88.361 Y100.265 E25.76836
G1 X88.462 Y100.742 E25.78077
G1 X88.668 Y101.203 E25.79363
G1 X88.963 Y101.609 E25.80641
G1 X89.318 Y101.929 E25.81858
G1 X89.569 Y102.092 E25.82620
G1 X90.007 Y102.287 E25.83841
G1 X90.473 Y102.386 E25.85054
G1 X90.772 Y102.403 E25.85817
G1 X91.249 Y102.352 E25.87039
G1 X91.729 Y102.197 E25.88323
G1 X92.143 Y101.956 E25.89543
G1 X92.375 Y101.769 E25.90302
G1 X92.678 Y101.432 E25.91456
G1 X92.842 Y101.182 E25.92217
G1 X93.037 Y100.741 E25.93445
G1 X93.136 Y100.275 E25.94658
G1 X93.153 Y99.971 E25.95434
G1 X93.103 Y99.515 E25.96602
G1 X93.025 Y99.228 E25.97359
G1 X92.839 Y98.813 E25.98517
G1 X92.678 Y98.567 E25.99266
G1 X92.358 Y98.212 E26.00483
G1 X91.948 Y97.915 E26.01772
G1 X91.515 Y97.722 E26.02979
G1 X91.248 Y97.650 E26.03683
G1 X90.997 Y97.611 E26.04330
G1 X90.720 Y97.598 E26.05036
G1 X90.267 Y97.646 E26.06196
G1 X90.001 Y97.718 E26.06898
G1 X89.744 Y97.817 E26.07599
G1 X89.335 Y98.055 E26.08804
G0 F6000 X91.226 Y97.749
G0 X106.862 Y99.751
G1 F900 X106.849 Y99.998 E26.09434
G1 X106.861 Y100.265 E26.10115
G1 X106.962 Y100.742 E26.11357
G1 X107.168 Y101.203 E26.12642
G1 X107.463 Y101.609 E26.13920
G1 X107.818 Y101.929 E26.15137
G1 X108.069 Y102.092 E26.15899
G1 X108.507 Y102.287 E26.17120
G1 X108.973 Y102.386 E26.18334
G1 X109.272 Y102.403 E26.19096
G1 X109.749 Y102.352 E26.20318
G1 X110.229 Y102.197 E26.21602
G1 X110.643 Y101.956 E26.22822
G1 X110.875 Y101.769 E26.23581
G1 X111.178 Y101.432 E26.24735
G1 X111.342 Y101.182 E26.25496
G1 X111.537 Y100.741 E26.26724
G1 X111.636 Y100.275 E26.27937
G1 X111.653 Y99.971 E26.28713
G1 X111.603 Y99.515 E26.29881
G1 X111.525 Y99.228 E26.30638
G1 X111.339 Y98.813 E26.31796
G1 X111.178 Y98.567 E26.32545
G1 X110.858 Y98.212 E26.33762
G1 X110.448 Y97.915 E26.35051
G1 X110.015 Y97.722 E26.36258
G1 X109.748 Y97.650 E26.36963
G1 X109.497 Y97.611 E26.37609
G1 X109.220 Y97.598 E26.38316
G1 X108.767 Y97.646 E26.39476
G1 X108.501 Y97.718 E26.40177
G1 X108.244 Y97.817 E26.40879
G1 X107.835 Y98.055 E26.42084
G1 X107.461 Y98.392 E26.43366
G1 X107.179 Y98.783 E26.44593
G1 X107.054 Y99.028 E26.45294
G1 X106.965 Y99.263 E26.45934
G1 X106.900 Y99.500 E26.46559
G1 X106.862 Y99.751 E26.47206
G0 F6000 X107.450 Y99.999
;TYPE:WALL-OUTER
G1 F900 X107.458 Y100.188 E26.47687
G1 X107.536 Y100.556 E26.48645
G1 X107.690 Y100.901 E26.49608
G1 X107.911 Y101.205 E26.50565
G1 X108.185 Y101.452 E26.51504
G1 X108.356 Y101.563 E26.52023
G1 X108.693 Y101.713 E26.52962
G1 X109.053 Y101.789 E26.53899
G1 X109.257 Y101.801 E26.54420
G1 X109.624 Y101.762 E26.55360
G1 X109.983 Y101.646 E26.56320
G1 X110.302 Y101.461 E26.57259
G1 X110.460 Y101.332 E26.57779
G1 X110.701 Y101.065 E26.58695
G1 X110.813 Y100.894 E26.59215
G1 X110.963 Y100.556 E26.60157
G1 X111.039 Y100.196 E26.61094
G1 X111.051 Y99.987 E26.61627
G1 X111.012 Y99.627 E26.62549
G1 X110.958 Y99.431 E26.63067
G1 X110.811 Y99.102 E26.63984
G1 X110.701 Y98.934 E26.64496
G1 X110.455 Y98.661 E26.65431
G1 X110.147 Y98.438 E26.66400
G1 X109.814 Y98.289 E26.67329
G1 X109.623 Y98.238 E26.67832
G1 X109.436 Y98.209 E26.68314
G1 X109.237 Y98.199 E26.68821
G1 X108.878 Y98.237 E26.69741
G1 X108.505 Y98.360 E26.70741
G1 X108.190 Y98.542 E26.71667
G1 X107.910 Y98.795 E26.72628
G1 X107.692 Y99.097 E26.73577
G1 X107.603 Y99.271 E26.74074
G1 X107.536 Y99.448 E26.74556
G1 X107.488 Y99.625 E26.75023
G1 X107.459 Y99.812 E26.75505
G1 X107.450 Y99.999 E26.75982
G0 F6000 X107.050 Y99.979
G0 X92.950 Y100.008
G0 X92.551 Y99.987
G1 F900 X92.512 Y99.627 E26.76904
G1 X92.458 Y99.431 E26.77422
G1 X92.311 Y99.102 E26.78339
G1 X92.201 Y98.934 E26.78851
G1 X91.955 Y98.661 E26.79787
G1 X91.647 Y98.438 E26.80755
G1 X91.314 Y98.289 E26.81684
G1 X91.123 Y98.238 E26.82187
G1 X90.936 Y98.209 E26.82669
G1 X90.737 Y98.199 E26.83177
G1 X90.378 Y98.237 E26.84096
G1 X90.005 Y98.360 E26.85096
G1 X89.690 Y98.542 E26.86022
G1 X89.410 Y98.795 E26.86983
G1 X89.192 Y99.097 E26.87932
G1 X89.103 Y99.271 E26.88430
G1 X89.036 Y99.448 E26.88911
G1 X88.988 Y99.625 E26.89378
G1 X88.959 Y99.812 E26.89860
G1 X88.950 Y99.999 E26.90337
G1 X88.958 Y100.188 E26.90819
G1 X89.036 Y100.556 E26.91777
G1 X89.190 Y100.901 E26.92739
G1 X89.411 Y101.205 E26.93696
G1 X89.685 Y101.452 E26.94635
G1 X89.856 Y101.563 E26.95154
G1 X90.193 Y101.713 E26.96094
G1 X90.553 Y101.789 E26.97031
G1 X90.757 Y101.801 E26.97551
G1 X91.124 Y101.762 E26.98491
G1 X91.483 Y101.646 E26.99452
G1 X91.802 Y101.461 E27.00391
G1 X91.960 Y101.332 E27.00910
G1 X92.201 Y101.065 E27.01826
G1 X92.313 Y100.894 E27.02347
G1 X92.463 Y100.556 E27.03288
G1 X92.539 Y100.196 E27.04225
G1 X92.551 Y99.987 E27.04758
G0 F6000 X92.950 Y100.008
G0 X92.597 Y98.628
G0 X73.200 Y73.110
G0 X72.800 Y72.800
G1 F900 X127.200 Y72.800 E28.43287
G1 X127.200 Y127.200 E29.81815
G1 X72.800 Y127.200 E31.20344
G1 X72.800 Y72.800 E32.58872
G0 F6000 X73.200 Y73.110
G0 X74.809 Y75.234
;TYPE:SKIN
G1 F900 X124.765 Y125.189 E34.38775
G0 F6000 X125.189 Y124.765
G1 F900 X75.234 Y74.809 E36.18678
G0 F6000 X76.082 Y74.809
G1 F900 X125.189 Y123.916 E37.95525
G0 F6000 X125.189 Y123.068
G1 F900 X76.931 Y74.809 E39.69317
G0 F6000 X77.779 Y74.809
G1 F900 X125.189 Y122.219 E41.40053
G0 F6000 X125.189 Y121.371
G1 F900 X78.628 Y74.809 E43.07733
G0 F6000 X79.476 Y74.809
G1 F900 X105.549 Y100.882 E44.01629
G0 F6000 X108.365 Y103.698
G1 F900 X125.189 Y120.522 E44.62217
G0 F6000 X123.916 Y125.189
G1 F900 X74.809 Y76.082 E46.39064
G0 F6000 X74.809 Y76.931
G1 F900 X123.068 Y125.189 E48.12856
G0 F6000 X122.219 Y125.189
G1 F900 X74.809 Y77.779 E49.83592
G0 F6000 X74.809 Y78.628
G1 F900 X121.371 Y125.189 E51.51272
G0 F6000 X120.522 Y125.189
G1 F900 X94.457 Y99.124 E52.45139
G0 F6000 X91.622 Y96.289
G1 F900 X74.809 Y79.476 E53.05687
G0 F6000 X74.809 Y80.325
G1 F900 X90.668 Y96.183 E53.62798
G0 F6000 X89.914 Y96.278
G1 F900 X74.809 Y81.173 E54.17195
G0 F6000 X74.809 Y82.022
G1 F900 X89.273 Y96.486 E54.69284
G0 F6000 X88.719 Y96.780
G1 F900 X74.809 Y82.870 E55.19377
G0 F6000 X74.809 Y83.719
G1 F900 X88.235 Y97.145 E55.67728
G0 F6000 X87.814 Y97.572
G1 F900 X74.809 Y84.567 E56.14562
G0 F6000 X74.809 Y85.416
G1 F900 X87.460 Y98.067 E56.60122
G0 F6000 X87.190 Y98.645
G1 F900 X74.809 Y86.264 E57.04709
G0 F6000 X74.809 Y87.113
G1 F900 X87.003 Y99.306 E57.48621
G0 F6000 X86.943 Y100.095
G1 F900 X74.809 Y87.961 E57.92319
G0 F6000 X74.809 Y88.810
G1 F900 X87.096 Y101.097 E58.36568
G0 F6000 X89.652 Y103.653
G1 F900 X111.189 Y125.189 E59.14126
G0 F6000 X112.037 Y125.189
G1 F900 X90.654 Y103.806 E59.91132
G0 F6000 X91.444 Y103.748
G1 F900 X112.886 Y125.189 E60.68349
G0 F6000 X113.734 Y125.189
G1 F900 X92.102 Y103.557 E61.46251
G0 F6000 X92.672 Y103.278
G1 F900 X114.583 Y125.189 E62.25159
G0 F6000 X115.431 Y125.189
G1 F900 X93.175 Y102.933 E63.05308
G0 F6000 X93.601 Y102.511
G1 F900 X116.280 Y125.189 E63.86980
G0 F6000 X117.128 Y125.189
G1 F900 X93.970 Y102.031 E64.70378
G0 F6000 X94.255 Y101.468
G1 F900 X117.977 Y125.189 E65.55805
G0 F6000 X118.825 Y125.189
G1 F900 X94.459 Y100.823 E66.43554
G0 F6000 X94.558 Y100.073
G1 F900 X119.674 Y125.189 E67.34003
G0 F6000 X110.340 Y125.189
G1 F900 X74.809 Y89.659 E68.61958
G0 F6000 X74.809 Y90.507
G1 F900 X109.491 Y125.189 E69.86857
G0 F6000 X108.643 Y125.189
G1 F900 X74.809 Y91.356 E71.08700
G0 F6000 X74.809 Y92.204
G1 F900 X107.794 Y125.189 E72.27488
G0 F6000 X106.946 Y125.189
G1 F900 X74.809 Y93.053 E73.43220
G0 F6000 X74.809 Y93.901
G1 F900 X106.097 Y125.189 E74.55896
G0 F6000 X105.249 Y125.189
G1 F900 X74.809 Y94.750 E75.65517
G0 F6000 X74.809 Y95.598
G1 F900 X104.400 Y125.189 E76.72082
G0 F6000 X103.552 Y125.189
G1 F900 X74.809 Y96.447 E77.75592
G0 F6000 X74.809 Y97.295
G1 F900 X102.703 Y125.189 E78.76045
G0 F6000 X101.855 Y125.189
G1 F900 X74.809 Y98.144 E79.73443
G0 F6000 X74.809 Y98.992
G1 F900 X101.006 Y125.189 E80.67786
G0 F6000 X100.158 Y125.189
G1 F900 X74.809 Y99.841 E81.59072
G0 F6000 X74.809 Y100.689
G1 F900 X99.309 Y125.189 E82.47303
G0 F6000 X98.461 Y125.189
G1 F900 X74.809 Y101.538 E83.32479
G0 F6000 X74.809 Y102.386
G1 F900 X97.612 Y125.189 E84.14598
G0 F6000 X96.764 Y125.189
G1 F900 X74.809 Y103.235 E84.93662
G0 F6000 X74.809 Y104.083
G1 F900 X95.915 Y125.189 E85.69671
G0 F6000 X95.066 Y125.189
G1 F900 X74.809 Y104.932 E86.42621
G0 F6000 X74.809 Y105.781
G1 F900 X94.218 Y125.189 E87.12517
G0 F6000 X93.369 Y125.189
G1 F900 X74.809 Y106.629 E87.79356
G0 F6000 X74.809 Y107.478
G1 F900 X92.521 Y125.189 E88.43140
G0 F6000 X91.672 Y125.189
G1 F900 X74.809 Y108.326 E89.03868
G0 F6000 X74.809 Y109.175
G1 F900 X90.824 Y125.189 E89.61540
G0 F6000 X89.975 Y125.189
G1 F900 X74.809 Y110.023 E90.16157
G0 F6000 X74.809 Y110.872
G1 F900 X89.127 Y125.189 E90.67718
G0 F6000 X88.278 Y125.189
G1 F900 X74.809 Y111.720 E91.16224
G0 F6000 X74.809 Y112.569
G1 F900 X87.430 Y125.189 E91.61674
G0 F6000 X86.581 Y125.189
G1 F900 X74.809 Y113.417 E92.04068
G0 F6000 X74.809 Y114.266
G1 F900 X85.733 Y125.189 E92.43406
G0 F6000 X84.884 Y125.189
G1 F900 X74.809 Y115.114 E92.79689
G0 F6000 X74.809 Y115.963
G1 F900 X84.036 Y125.189 E93.12916
G0 F6000 X83.187 Y125.189
G1 F900 X74.809 Y116.811 E93.43087
G0 F6000 X74.809 Y117.660
G1 F900 X82.339 Y125.189 E93.70203
G0 F6000 X81.490 Y125.189
G1 F900 X74.809 Y118.508 E93.94263
G0 F6000 X74.809 Y119.357
G1 F900 X80.641 Y125.189 E94.15266
G0 F6000 X79.793 Y125.189
G1 F900 X74.809 Y120.206 E94.33213
G0 F6000 X74.809 Y121.054
G1 F900 X78.944 Y125.189 E94.48104
G0 F6000 X78.096 Y125.189
G1 F900 X74.809 Y121.903 E94.59939
G0 F6000 X74.809 Y122.751
G1 F900 X77.247 Y125.189 E94.68719
G0 F6000 X76.399 Y125.189
G1 F900 X74.809 Y123.600 E94.74443
G0 F6000 X74.809 Y124.448
G1 F900 X75.550 Y125.189 E94.77112
G0 F6000 X105.440 Y99.925
G1 F900 X80.325 Y74.809 E95.67560
G0 F6000 X81.173 Y74.809
G1 F900 X105.530 Y99.166 E96.55276
G0 F6000 X105.735 Y98.523
G1 F900 X82.022 Y74.809 E97.40674
G0 F6000 X82.870 Y74.809
G1 F900 X106.029 Y97.968 E98.24076
G0 F6000 X106.384 Y97.474
